apps/statesvisited/state-images/SC.svg

<svg height="635" width="1182" xmlns="http://www.w3.org/2000/svg"><path d="m783.79462 407.159s-13.8591-15.11905-15.539-16.79894c-1.6799-1.6799-7.5595-7.9795-10.9193-10.07937-3.3598-2.09986-12.1793-15.11904-12.1793-15.11904s-8.3994-2.51985-11.3392-5.87963c-2.9399-3.35979-1.26-7.13955.8399-8.39948 2.0999-1.25992 13.8591-6.2996 15.539-6.2996s19.3188-2.09987 19.3188-2.09987l5.4597 6.29961 18.4788-2.51984s8.8195 9.23941 11.7593 11.75926c2.9398 2.51984 11.7592 6.2996 11.7592 6.2996s-6.2996 1.67989-7.1395 5.03968c-.84 3.35979-.84 8.39947-4.1998 11.33929-3.3597 2.93981-9.6594 8.81944-11.7592 11.33928-2.0999 2.51984-9.6594 15.53902-10.0794 15.11905z" fill="#f6d55c" fill-rule="evenodd" opacity=".9" stroke="#000"/></svg>

<?xml version="1.0" encoding="UTF-8" standalone="no"?>
<!-- Created with Inkscape (http://www.inkscape.org/) -->
<svg
   xmlns:dc="http://purl.org/dc/elements/1.1/"
   xmlns:cc="http://web.resource.org/cc/"
   xmlns:rdf="http://www.w3.org/1999/02/22-rdf-syntax-ns#"
   xmlns:svg="http://www.w3.org/2000/svg"
   xmlns="http://www.w3.org/2000/svg"
   xmlns:xlink="http://www.w3.org/1999/xlink"
   xmlns:sodipodi="http://sodipodi.sourceforge.net/DTD/sodipodi-0.dtd"
   xmlns:inkscape="http://www.inkscape.org/namespaces/inkscape"
   id="svg1923"
   sodipodi:version="0.32"
   inkscape:version="0.44"
   width="1182"
   height="635"
   version="1.0"
   sodipodi:docbase="/Users/amyshore/Desktop"
   sodipodi:docname="usa.svg">
  <metadata
     id="metadata1928">
    <rdf:RDF>
      <cc:Work
         rdf:about="">
        <dc:format>image/svg+xml</dc:format>
        <dc:type
           rdf:resource="http://purl.org/dc/dcmitype/StillImage" />
      </cc:Work>
    </rdf:RDF>
  </metadata>
  <defs
     id="defs1926" />
  <sodipodi:namedview
     inkscape:window-height="752"
     inkscape:window-width="1280"
     inkscape:pageshadow="2"
     inkscape:pageopacity="0.0"
     guidetolerance="10.0"
     gridtolerance="10.0"
     objecttolerance="10.0"
     borderopacity="1.0"
     bordercolor="#666666"
     pagecolor="#ffffff"
     id="base"
     inkscape:zoom="0.59527559"
     inkscape:cx="775.234"
     inkscape:cy="319.32597"
     inkscape:window-x="0"
     inkscape:window-y="22"
     inkscape:current-layer="layer2" />
  <g
     inkscape:groupmode="layer"
     id="layer1"
     inkscape:label="bg"
     style="opacity:1;display:none"
     sodipodi:insensitive="true">
    <image
       xlink:href="ElectoralCollege1996-Large.png"
       sodipodi:absref="/Users/amyshore/Desktop/ElectoralCollege1996-Large.png"
       width="1182"
       height="635"
       id="image1930"
       x="-1.3571358"
       y="1.6798911" />
  </g>
  <g
     inkscape:groupmode="layer"
     id="layer2"
     inkscape:label="vector"
     style="opacity:0.9;display:inline"> <path style="fill:#f6d55c;fill-opacity:1;fill-rule:evenodd;stroke:black;stroke-width:1px;stroke-linecap:butt;stroke-linejoin:miter;stroke-opacity:1" d="M 783.79462,407.159 C 783.79462,407.159 769.93552,392.03995 768.25562,390.36006 C 766.57572,388.68016 760.69612,382.38056 757.33632,380.28069 C 753.97652,378.18083 745.15702,365.16165 745.15702,365.16165 C 745.15702,365.16165 736.75762,362.6418 733.81782,359.28202 C 730.87792,355.92223 732.55782,352.14247 734.65772,350.88254 C 736.75762,349.62262 748.51682,344.58294 750.19672,344.58294 C 751.87662,344.58294 769.51552,342.48307 769.51552,342.48307 L 774.97522,348.78268 L 793.45402,346.26284 C 793.45402,346.26284 802.27352,355.50225 805.21332,358.0221 C 808.15312,360.54194 816.97252,364.3217 816.97252,364.3217 C 816.97252,364.3217 810.67292,366.00159 809.83302,369.36138 C 808.99302,372.72117 808.99302,377.76085 805.63322,380.70067 C 802.27352,383.64048 795.97382,389.52011 793.87402,392.03995 C 791.77412,394.55979 784.21462,407.57897 783.79462,407.159 z " id="path6369" />   </g>
</svg>
